X: 6
M: 2/4
L: 1/16
K: F
V: 1
c2 |\
fgaf efge | defd cAGF |\
fafd egec | fdc=B c2 :|
|: c2 |\
dBTB2 bBTB2 | cAA2 aAA2 |\
V: 2 clef=bass middle=d
z2 |\
f2a2c'2c2 | B2G2A2F2 |\
f2z2 c'2e2 | f2g2c2 :|\
|: a2 | b2g2 z2g2 |
a2f2 z2f2 |\
g2c2e2c2 | f2c2F2 :|

